packages/other/assets/technologies/git.svg

<svg xmlns="http://www.w3.org/2000/svg" viewBox="0 0 39 39">
  <title>Git</title>
  <g fill="none" fill-rule="evenodd">
    <circle cx="19.5" cy="19.5" r="19.5" fill="#05192D"/>
    <path fill="#FFF" d="M22.1095631,8.53841545 L30.7526293,17.1814817 C32.0331116,18.461964 32.0331116,20.538036 30.7526293,21.8185183 L22.1095631,30.4615845 C20.8290808,31.7420668 18.7530088,31.7420668 17.4725265,30.4615845 L8.82946023,21.8185183 C7.54897794,20.538036 7.54897794,18.461964 8.82946023,17.1814817 L14.9145983,11.0945535 L17.9117127,14.1923507 C17.832849,14.4072734 17.7898012,14.6394823 17.7898012,14.8817455 C17.7898012,15.7139475 18.2977657,16.4275081 19.0205541,16.7292867 L19.0205541,22.8864806 C18.2977657,23.1882592 17.7898012,23.9018197 17.7898012,24.7340217 C17.7898012,25.8392781 18.6857885,26.7352653 19.7910448,26.7352653 C20.8963011,26.7352653 21.7922884,25.8392781 21.7922884,24.7340217 C21.7922884,23.9018197 21.2843239,23.1882592 20.5615354,22.8864806 L20.5605983,16.9315535 L22.8772363,19.3273347 C22.7734249,19.569279 22.7159393,19.8358099 22.7159393,20.1157673 C22.7159393,21.2210236 23.6119266,22.1170109 24.7171829,22.1170109 C25.8224392,22.1170109 26.7184265,21.2210236 26.7184265,20.1157673 C26.7184265,19.0105109 25.8224392,18.1145237 24.7171829,18.1145237 C24.4567842,18.1145237 24.2080015,18.1642577 23.9798154,18.2547451 L21.5799095,15.7798997 C21.7157842,15.509806 21.7922884,15.20471 21.7922884,14.8817455 C21.7922884,13.7764892 20.8963011,12.8805019 19.7910448,12.8805019 C19.4896112,12.8805019 19.2037432,12.9471456 18.947371,13.0665025 L15.9915983,10.0175535 L17.4725265,8.53841545 C18.7530088,7.25793316 20.8290808,7.25793316 22.1095631,8.53841545 Z"/>
  </g>
</svg>

<svg xmlns="http://www.w3.org/2000/svg" xmlns:xlink="http://www.w3.org/1999/xlink" width="39" height="39"><title>GIT</title><defs><linearGradient id="b" x1="50%" x2="50%" y1="98.012%" y2="5.507%"><stop offset="0%" stop-color="#EC7739"/><stop offset="100%" stop-color="#F8A477"/></linearGradient><circle id="a" cx="19.5" cy="19.5" r="19.5"/></defs><g fill="none" fill-rule="evenodd"><mask id="c" fill="#fff"><use xlink:href="#a"/></mask><use fill="url(#b)" xlink:href="#a"/><path fill="#FFF" d="M22.11 8.538l8.643 8.643a3.279 3.279 0 010 4.638l-8.643 8.643a3.279 3.279 0 01-4.637 0l-8.644-8.643a3.279 3.279 0 010-4.638l6.086-6.086 2.997 3.097a2.002 2.002 0 001.109 2.537v6.157a2.002 2.002 0 101.54 0v-5.954l2.316 2.395a2.001 2.001 0 101.103-1.073l-2.4-2.474a2.001 2.001 0 00-2.633-2.713l-2.955-3.05 1.48-1.479a3.279 3.279 0 014.638 0z" mask="url(#c)"/></g></svg>
